X:195
T:Reel 195
M:4/4
K:Gmaj
L:1/8
dc|B2BG dBGB|AGFA cffc|B2Bc d2cB|cAdB AGFA|BABc dBGB|AGFA c2Bc| (3dcB  (3cBA BGFG|AGFE F2|cd|A2Ac B2BG|ADD2 FEFA|BcBA B2fd| (3Bcd ec d2Bc|AD (3FDD AFFG|AFFA d2fd|Bcdc BGAG|FEFG ABcA|
